assets/icons/qvision/mic.svg

<svg xmlns="http://www.w3.org/2000/svg" height="24" viewBox="0 0 24 24" width="24"><path d="M0 0h24v24H0z" fill="none"/><path d="M12 14c1.66 0 2.99-1.34 2.99-3L15 5c0-1.66-1.34-3-3-3S9 3.34 9 5v6c0 1.66 1.34 3 3 3zm5.3-3c0 3-2.54 5.1-5.3 5.1S6.7 14 6.7 11H5c0 3.41 2.72 6.23 6 6.72V21h2v-3.28c3.28-.48 6-3.3 6-6.72h-1.7z"/></svg>

<svg width="24" height="24" viewBox="0 0 24 24" fill="none" xmlns="http://www.w3.org/2000/svg">
<g clip-path="url(#clip0_147_1504)">
<path d="M12 14C13.66 14 14.99 12.66 14.99 11L15 5C15 3.34 13.66 2 12 2C10.34 2 9 3.34 9 5V11C9 12.66 10.34 14 12 14ZM17.3 11C17.3 14 14.76 16.1 12 16.1C9.24 16.1 6.7 14 6.7 11H5C5 14.41 7.72 17.23 11 17.72V21H13V17.72C16.28 17.24 19 14.42 19 11H17.3Z" fill="#323232"/>
</g>
<defs>
<clipPath id="clip0_147_1504">
<rect width="24" height="24" fill="white"/>
</clipPath>
</defs>
</svg>
